X: 1
T: String Quartet in E\b major opus 9 no 2 mvt 3
C: Franz Joseph Haydn
%%abc-version 2.0
%%abcx-abcm2ps-target-version 5.9.1 (29 Sep 2008)
%%abc-creator hum2abc beta
%%abcx-conversion-date 2021/02/14 14:38:31
%%abc-copyright Copyright (c) 1994, 2000 Center for Computer Assisted Research in the Humanities
%%abc-edited-by Frances Bennion
%%abcx-initial-encoding-date 1997/04/15
%%gracespace 0 6 6
%%humdrum-veritas 3064087399
%%humdrum-veritas-data 1462680301
%%linebreak <none>
%%barnumbers 0
L: 1/8
M: 4/4
N: Derived from op09n2-03.krn
Q: "Adagio" 1/4=50
%%staves [1 2 3 4]
V: 1
V: 2
V: 3 clef=alto
V: 4 clef=bass
K: Eb
[V:1]z2 >=B,2 CE G=B [I:setbarnb2] |
[V:2]z2 G,6- |
[V:3]zE,- E,6- |
[V:4]C,8- |
[V:1]ce dc c4 |
[V:2]G,4 z3 A,- |
[V:3]E,4 z2 F,2- |
[V:4]C,4 zD,3- |
[V:1]=B=B, DF AB df |
[V:2]A,4- A,4- |
[V:3]F,4- F,4- |
[V:4]D,8- |
[V:1]a3/(3g//a//b// a3/(3g//a//b// a2 g=B |
[V:2]A,4 z4 |
[V:3]F,4 z4 |
[V:4]D,4 z4 |
[V:1]d4 cz/G,/ C/E/G/=B/ |
[V:2]z2 >=B,2 Cz3 |
[V:3]z2 G,3 z3 |
[V:4]z2 E,3 z3 |
[V:1]c/d/e/^f/ g/=b/c'/b/ c'4- |
[V:2]z7 E |
[V:3]z6 C2 |
[V:4]z4 zA,,2- A,,- |
[V:1]c'c cc e2 dc |
[V:2]^F4- Fz3 |
[V:3]E4 Cz3 |
[V:4]A,,4- A,,z3 |
[V:1]c4 =B2 z2 |
[V:2]z2 >^F2 Gz3 |
[V:3]z2 D3 z3 |
[V:4]z2 G,,3 z3 |
[V:1][M:3/4]g4 f/e/d/ c/|
[V:2][M:3/4]zG zG zG |
[V:3][M:3/4]zE zE zE |
[V:4][M:3/4]C,z C,z C,z |
[V:1]=Ba2 <a2 B |
[V:2]zF zF zF |
[V:3]z=B, zB, zB, |
[V:4]D,z D,z D,z |
[V:1]cc//=B//c//d// ec Gc |
[V:2]zG zG zG |
[V:3]zC zC zC |
[V:4]E,z E,z E,z |
[V:1]AG/F <ED//E// F/D/C/=B,/ |
[V:2]zA zE zF |
[V:3]zC zC zD |
[V:4]F,z G,z G,,z |
[V:1]C3/=B,//C// G,z3 |
[V:2]zE zG zF |
[V:3]zC zE zD |
[V:4]C,z C,z G,z |
[V:1]g4 f/e/d/c/ |
[V:2]zE zE zG |
[V:3]zG, zG, zE |
[V:4]C,z C,z C,z |
[V:1]ca a4- |
[V:2]zA zA zA |
[V:3]zC zC zC |
[V:4]F,z F,z E,z |
[V:1]a/f/d/B/ A/F/D/B,/ A,/G,//A,//F/A,/ |
[V:2]zA zA zA |
[V:3]zB, zB, zB, |
[V:4]D,z D,z D,z |
[V:1]G,b2 <b2 a/g/ |
[V:2]zG zG zB |
[V:3]zB, zB, zE |
[V:4]E,z E,z G,,z |
[V:1](3:2:2f-f/8a//g//f//c'3 e|
[V:2]zc zc zc |
[V:3]zE zE zF |
[V:4]A,,z A,,z =A,,z |
[V:1]d2 a3 f/d/ |
[V:2]zB zF zA |
[V:3]zD zD zF |
[V:4]B,,z B,,z B,,z |
[V:1]eb2 <b2 g/=e/ |
[V:2]zG zG zB |
[V:3]zE zE zG |
[V:4]B,,z B,,z B,,z |
[V:1]fa2 <c'2 b//a//g//f// |
[V:2]zA zA zA |
[V:3]zF zF zD |
[V:4]B,,z B,,z B,,z |
[V:1]ge'/_d'/ d'4 |
[V:2]zG zB zB |
[V:3]zE zE zE |
[V:4]E,z G,z G,z |
[V:1]c'=e' f'g' a'f' |
[V:2]zc zc zc |
[V:3]z=E zF zF |
[V:4]A,z A,z A,z |
[V:1]e'2 d'z >DE/e/ |
[V:2]B3 z2 B |
[V:3]F3 z2 E |
[V:4]A,3 z2 G,, |
[V:1]cB/A/ G2 F2 |
[V:2]zc zE zD |
[V:3]zE zB, zB, |
[V:4]A,,z B,,z B,,z |
[V:1]E3 A/G/ A/F/E/D/ |
[V:2]z_D2 <C2 A, |
[V:3]zB,2 <A,2 F, |
[V:4]E,z E,z E,z |
[V:1]E3 e/c/ B/A/G/F/ |
[V:2]G,_D2 <C2 A, |
[V:3]E,B,2 <A,2 D |
[V:4]E,,z E,,z E,,z |
[V:1]F2 Ez3 |
[V:2]A,2 G,z3 |
[V:3]D2 Ez3 |
[V:4]E,,2 >F,2 E,D, |
[V:1]g4 f/e/d/c/ |
[V:2]zG zG zG |
[V:3]zE zE zE |
[V:4]C,z C,z C,z |
[V:1]=Ba (3:2:2a2-a//g//f//e// d//c//B//|
[V:2]zF zF zF |
[V:3]z=B, zB, zB, |
[V:4]D,z D,z D,z |
[V:1]cc//=B//c//d// ec Gc |
[V:2]zG zG zG |
[V:3]zC zC zC |
[V:4]E,z E,z E,z |
[V:1]AG/F <ED//E// F/D/C/=B,/ |
[V:2]zA zE zF |
[V:3]zC zC zD |
[V:4]F,z G,z G,,z |
[V:1]C3/=B,//C// G,z3 |
[V:2]zE zG zF |
[V:3]zC zE zD |
[V:4]C,z C,z G,z |
[V:1]g4 f/e/d/c/ |
[V:2]zE zE zG |
[V:3]zG, zG, zE |
[V:4]C,z C,z C,z |
[V:1]ca a4- |
[V:2]zA zA zA |
[V:3]zC zC zC |
[V:4]F,z F,z E,z |
[V:1]a/g//f//e//d//c//B// A//G//F//E//D//C//B,//=A,// B,_A, |
[V:2]zA zA zA |
[V:3]zB, zB, zB, |
[V:4]D,z D,z D,z |
[V:1]G,//B,//D//E//G//B//e//g// (3:2:2b2-b//b/a/ g/|
[V:2]zG zG zB |
[V:3]zB, zB, zE |
[V:4]E,z E,z G,,z |
[V:1]f//=e//g//f//a//g//b//a// (3c'2>>b2 =a/(3g/f/_e/ |
[V:2]zc zc zc |
[V:3]zE zE zF |
[V:4]A,,z A,,z =A,,z |
[V:1]da (3a2>>f2 d/(3f/d/A/ |
[V:2]zB zF zA |
[V:3]zD zD zF |
[V:4]B,,z B,,z B,,z |
[V:1](3G/B/d/(3e/g/b/ b3 a//g//f//=e// |
[V:2]zG zG zB |
[V:3]zE zE zG |
[V:4]B,,z B,,z B,,z |
[V:1]f//g//f//g//a//b//a//b// c'3 b//a//g//f// |
[V:2]zA zA zA |
[V:3]zF zF zD |
[V:4]B,,z B,,z B,,z |
[V:1]g/e/e'/_d'/ d'4 |
[V:2]zG zB zB |
[V:3]zE zE zE |
[V:4]E,z G,z G,z |
[V:1]c'=e' f'g' a'f' |
[V:2]zc zc zc |
[V:3]z=E zF zF |
[V:4]A,z A,z A,z |
[V:1]e'/d'//f'//a'//f'//d'//b// a//b//d'//f'//a'//f'/8d'/8b/8a/8b/8d'/8 f'/8a'/8f'/8d'/8b/8a/8z//D/8E/8D/8E/8d//e// |
[V:2]B3 z2 B |
[V:3]F3 z2 E |
[V:4]A,3 z2 G,, |
[V:1]cB/A/ G2 F2 |
[V:2]zc zE zD |
[V:3]zE zB, zB, |
[V:4]A,,z B,,z B,,z |
[V:1]E6 |
[V:2]zB, zB, zB, |
[V:3]zG, zG, zG, |
[V:4]E,z E,z _D,z |
[V:1]=E2 >_d2 cE |
[V:2]zB, zB, zB, |
[V:3]zG, zG, zG, |
[V:4]C,z C,z C,z |
[V:1]F6 |
[V:2]zA, zC zC |
[V:3]zA, zA, z=A, |
[V:4]F,z F,z E,z |
[V:1]^F2 >e2 dF |
[V:2]zC zC zC |
[V:3]z=A, zA, zA, |
[V:4]D,z D,z D,z |
[V:1]G2 f3 d/=B/ |
[V:2]z=B, zD zF |
[V:3]zG, z=B, zD |
[V:4]G,z G,z G,z |
[V:1]cg2 <g2 f//e//d//c// |
[V:2]zE zE zG |
[V:3]zC zC zE |
[V:4]G,z G,z G,z |
[V:1]=Ba2 <a2 g//f//e//d// |
[V:2]zF zF zF |
[V:3]zD zD z=B, |
[V:4]G,z G,z G,z |
[V:1]e/c/c'/b/ b4 |
[V:2]zE zG zG |
[V:3]zC zC zC |
[V:4]C,z =E,z E,z |
[V:1]ag fe dc |
[V:2]zA zA zA |
[V:3]zC zC zD |
[V:4]F,z F,z F,z |
[V:1]c2 =Bz >Bc/c'/ |
[V:2]G3 z2 G |
[V:3]D3 z2 C |
[V:4]F,3 z2 E, |
[V:1]ag/f/ e2 _d2 |
[V:2]zc zc zB |
[V:3]zA zE zE |
[V:4]F,z G,z G,,z |
[V:1]c6- |
[V:2]zA ze zc' |
[V:3]zE zc ze |
[V:4]A,,z G,,z ^F,,z |
[V:1]c2 d4 |
[V:2]G,2 z4 |
[V:3]G,2 z4 |
[V:4]G,,2 z4 |
[V:1]c2 >G2 A=B, |
[V:2]zc zC2 F- |
[V:3]zC zE, F,G, |
[V:4]C,z E,2 F,G, |
[V:1]=B,2 CG AB, |
[V:2]F2 EC2 D |
[V:3]A,2 >E,2 F,F, |
[V:4]A,2 >E,2 F,G, |
[V:1]=B,2 Cz3 |]
[V:2]D2 Cz3 |]
[V:3]F,2 E,z3 |]
[V:4]C,2 C,,z3 |]

